!!!COM: Charles Gounod
!!!CNT: Francais
!!!TXO: Francais
!!!OTL: "Le banc de Pierre"
!!!LYR: Choudens
!!!OPR:
!!!OPS: Op.
!!!ONM: No.
!!!ENC: Emily Thomas
!!!YOR: CD Sheet Music French Art Songs, The Ultimate Collection
!!!YOR: CD Sheet Music, LLC 2003
!!!ODT: 1876/
!!NB: Vocal melody and text encoded.
**kern	**silbe
=1	=1
*clefG2	*
*k[f#]	*
*M3/4	*
*MM[Andante]	*
2.r	.
=2	=2
2.r	.
=3	=3
2.r	.
=4	=4
2.r	.
=5	=5
2.r	.
=6	=6
2.r	.
=7	=7
2.r	.
=8	=8
2.r	.
=9	=9
2.r	.
=10	=10
{8e	{Sous
8e	les
4e	grands
8e	peu-
8e	-pli-
=11	=11
[4e	-ers
8e]}	|}
8r	.
8r	.
{8e	{il
=12	=12
4.e	est
8e	un
8e	bane
8e	de
=13	=13
2g	pier-
8g}	-re}
8r	.
=14	=14
{8g	{Re-
8g	-cou-
4g	-vert,
8g	en
8g	tout
=15	=15
[4g	temps,
8g]]	|}
8r	.
{8g	{de
8g	jas-
=16	=16
2a	-min
8a	et
8a	de
=17	=17
8f#	Nons
8f#	ven-
4f#	-ions
8f#	tous
8f#	les
=18	=18
[2g	deux,
8g]}	|}
8r	.
=19	=19
{8g#	{elle
8g#	et
4g#	moi,
8g#	nous
8g#	as-
=20	=20
[2a	-seior,
8a]}	|}
8r	.
=21	=21
{8a	{Nous
8a	ven-
4a	-ions
8a	tous
8a	les
=22	=22
[2a#	deux,
8a#]}	|}
8r	.
=23	=23
{8a#	{elle
8a#	et
4a#	moi,
8a#	nous
8a#	as-
=24	=24
[2.b	-seoir.
=25	=25
2.b_	|
=26	=26
4b]}	|}
4r	.
4r	.
=27	=27
2.r	.
=28	=28
*k[f#c#g#d#]	*
2.r	.
=29	=29
2.r	.
=30	=30
2.r	.
=31	=31
2.r	.
=32	=32
{8.b	{Cha-
16b	-que
4b	nuit
8.a	nous
16g#	sem-
=33	=33
4g#	-blait
8f#}	|}
8r	.
{8cc#	{plus
8cc#	char-
=34	=34
4cc#	-man-
4b	-te
8a	et
8b	plus
=35	=35
4a	bel-
8g#}	-le,}
8r	.
{4b	{L'e/-
=36	=36
4.b	-toi-
8b	-le
8cc#	du
8g#	ber-
=37	=37
[2b	-ger
8b]}	|}
8r	.
=38	=38
{8b	{jus-
8b	qu'a\
4b	l'au-
8.cc#	-be
16cc#	nou-
=39	=39
2dd#	-vel-
8dd#}	-le}
8r	.
=40	=40
{4ee-	{Il-
8ddn	-lu-
8b-	-mi-
8ccn	-nant
8ddn	son
=41	=41
[2b-	front
8b-]}	|}
8r	.
=42	=42
{8.a-	{ra-
16ee-	-di-
4ee-	-eux
8.ddn	de
16ccn	beau-
=43	=43
[2b-	-te/,
8b-]}	|}
8r	.
=44	=44
{8bn	{L'e/-
8bn	-clai-
4b	-rait
8cc#	des
8dd#	ray-
=45	=45
2ee	-ons
8dd#	de
8cc#	sa
=46	=46
4g#	blan-
4.cc#	-che
8dd#	clar-
=47	=47
[4b	-te/!
8b]}	|}
8r	.
{4b	{Sa
=48	=48
4.cc#	main
8b	e/-
8ddn	-tait
8g#	trem-
=49	=49
4b	-blan-
8a}	-te,}
8r	.
{4cc#	{En
=50	=50
8dd#	ces
8cc#	in-
4.ee	-stants
8a#	si
=51	=51
[2b	doux,
8b]}	|}
8r	.
=52	=52
{8cc#	{D'-
8cc#	-une
4ff#	flam-
8ee	-me
8ff#	bru^-
=53	=53
4ee	-lan-
[4dd#	-te,
8dd#]}	|}
8r	.
=54	=54
{2gg#	{Oh!
8dd#	nous
8b#	e/-
=55	=55
8b#	-tions
8a#	heur-
8a#}	-reux,}
8r	.
{4ee	{Le
=56	=56
[4ee	ciel,
8ee]}	|}}
8r	.
{4e	{le
=57	=57
8a	ciel
8g#	e/-
4.g#	-tait
8f#	en
=58	=58
[2e	nous
8e]}	|}
8r	.
=59	=59
2.r	.
=60	=60
{8.b	{Et
16b	sa
4b	voix
8.a	s'u-
16g#	-nis-
=61	=61
4g#	-sait
4f#	|
4cc#	aux
=62	=62
4cc#	bruits
4b	de
8a	la
8b	na-
=63	=63
4a	-tu-
4g#}	-re,}
4r	.
=64	=64
{8b	{A
8b	la
4cc#	brise
8g#	em-
8g#	-bau-
=65	=65
[2b	-me/e,
8b]}	|}
8r	.
=66	=66
{8b	{au
8b	ruis-
4b	-seau
8cc#	qui
8cc#	mur-
=67	=67
2dd#	-mu-
8dd#}	-re,}
8r	.
=68	=68
{4ee-	{Au
8ddn	chant
8b-	des
8ccn	bois
8ddn	touf-
=69	=69
[2b-	-fus
8b-]}	|}
8r	.
=70	=70
{8a-	{nous
8ee-	vers-
4ee-	-ant
8ddn	leur
8ccn	frai^-
=71	=71
[2b-	-cheur,
8b-]}	|}
8r	.
=72	=72
{8bn	{A
8bn	ce
4b	va-
8cc#	-gue
8dd#	con-
=73	=73
2ee	cert
4dd#	qui
=74	=74
8dd#	vient
8g#	char-
4g#	-mer
4cc#	le
=75	=75
[4b	Coeur!
8b]}	|}
8r	.
{8.b	{Son
16b	ce/-
=76	=76
4.cc#	-les
8b	|
8ddn	te
8g#	sou-
=77	=77
4b	-ri-
8a}	-re}
8r	.
{4cc#	{m'en-
=78	=78
8dd#	i-
8cc#	-vrait
4.ee	plus
8a#	en-
=79	=79
[4b	-cor
8b]}	|}
8r	.
{4b	{Per-
=80	=80
4cc#	-du
4ff#	dans
8ee	mon
8ff#	de/-
=81	=81
4ee	-li-
[4dd#	-re
8dd#]}	|}
8r	.
=82	=82
{2gg#	{Ah!
8dd#	je
8b#	voy-
=83	=83
8b#	-ais
8a#	aux
8a#}	cieux}
8r	.
{4ee	{pas-
=83	=83
[4ee	-ser
8ee]}	|}
8r	.
{4e	{pas-
=84	=84
8a	-ser
8g#	des
4.g#	re^-
8f#	-ves
=85	=85
[2e	d'or!
8e]}	|}
8r	.
=86	=86
2.r	.
=87	=87
*k[f#]	*
2.r	.
=88	=88
{8e	{Main-
8e	-ten-
4e	-nant
8e	rien
8e	n'est
=89	=89
[4e	plus,
8e]}	|}
8r	.
4r	.
=90	=90
{8e	{mais
8e	l'i-
4e	-mage
8e	ef-
8e	-fa-
=91	=91
4g	-ce/-
8g}	-e}
8r	.
{4g	{Du
=92	=92
4g	son-
8g	-ge
8g	e/-
8g	-va-
8g	-nou-
=93	=93
[4g	-i
8g]}	|}
8r	.
{4g	{re-
=94	=94
[4a	-vient
8a]	|
8a	a\
8a	ma
8a	pen-
=95	=95
4b	-se/-
4b	-e!
4r	.
=96	=96
{8b	{O
8b	re-
4dd#	-grets
8cc#	e/-
8b	-ter-
=97	=97
[2g	-nels
8g]}	|}
8r	.
=98	=98
{8f	{de
8b	ce
4dd#	re^-
8cc#	-ve
8b	si
=99	=99
[2a#	doux
8a#]}	|}
8r	.
=100	=100
{4an	{Ar-
4an	-bres,
4r	.
=101	=101
[4g	fleurs
8g]	|
8r	.
8g	et
8g	ruis-
=102	=102
[4fn	-seaux
8fn]}	|}
8r	.
4r	.
=103	=103
{8e	{il
8e	ne
4e	res-
8e	-te
8e	que
=104	=104
[2b	voux,
8b]}	|}
8r	.
=105	=105
{8g	{il
8g	ne
4a	res-
8f#	-te
8f#	que
=106	=106
[2.e	vous!
=107	=107
4e]}	|}
4r	.
4r	.
==	==
*-	*-
